X:18
T:Haste to the Wedding
R:jig
Z:id:hn-jig-18
M:6/8
K:D
ABA Aaf|ede fdB|AFA A2F|GFG EFG|AFA Aaf|ede fdB|~A3 faf|1 ded d2B:|2 ded d2a||
|:afa afa|bgb bgb|afa afa|gfg efg|~a3 ~f3|ede fdB|~A3 faf|1 ded d2a:|2 ded d2B||
<end>
<start>
